X:50
T: Soldaten kommen aus dem Krieg (Band 1), S. 153
N: P0825
O: Lothringen
S: PINCK, Louis: Verklingende Weisen, Bd 1, Metz 1928]
R: Soldatenlied]
M: 6/8
L: 1/16
K: G
D2 | G2G2GGG4G2 | F4d2d4c2 | B8z2
B2 | d2c2B2B2c2d2 | e2e2d2c4
B2 | A2B2c2A2B2c2 | e2d2d2d4c2 | B8z2
D2 | G2G2G2G2F2G2 | A4d2d4c2 | B8z2
B2 | d4c2B4d2 | e4d2c4
B2 | A2B2c2A2B2c2 | e4d2d4c2 | B8z2

@@@ Tune index: 7600
